icon/cg/arrow-long-down-e.svg

<svg viewBox="0 0 24 24" fill="none" xmlns="http://www.w3.org/2000/svg" height="1em" width="1em">
  <path fill-rule="evenodd" clip-rule="evenodd" d="M14.998 1.02014H8.99801V7.02014H10.9991L11.012 19.1652L9.16751 17.3309L7.75726 18.7491L12.0118 22.9799L16.2427 18.7253L14.8246 17.315L13.012 19.1378L12.9991 7.02014H14.998V1.02014ZM10.998 3.02014H12.998V5.02014H10.998V3.02014Z" fill="currentColor"/>
</svg>

<svg width="24" height="24" fill="none" xmlns="http://www.w3.org/2000/svg"><path fill-rule="evenodd" clip-rule="evenodd" d="M14.998 1.02h-6v6h2.001l.013 12.145-1.844-1.834-1.41 1.418 4.254 4.23 4.23-4.254-1.417-1.41-1.813 1.823-.013-12.118h1.999v-6Zm-4 2h2v2h-2v-2Z" fill="currentColor"/></svg>
